X:962
T:Reel 962
M:4/4
K:Gmaj
L:1/8
G>F (3FEF E>F (3FGA |G>F (3FEF A>B (3cBA |B>F (3FEF E>B (3cBA |B>F (3FEF E>DD>F:||2E>F (3FEF E>G (3AGF |E>F (3FGA d2|: (3ABA |f>g (3fgf g>B (3Bef ||efge cefgfe:||2G>F (3FED A2FA|A>D (3FED E>F (3FGA |
